X: 20026
T: Jimmy Doyle's
R: polka
M: 2/4
K: Gmajor
|:A/|Bd de|dB BA/B/|dB A>B|dB G>A|
Bd d/B/d/e/|dB BA/B/|dG BA|AG G3/2:|
|:B/|dg g2|fe e>f|ed dc/d/|eA BA/B/|
dg g2|fe e2|dB BA|AG G3/2:|

